X:305
T:Caribou Reel
T:As played by Andy De Jarlis, Favorite Old Time Fiddle Tunes
M:2/4
L:1/16
C:Andy DeJarlis
Z:abc originally from Bruce Osborne, modified by
Z:Bob Kuzak (notation of Andy's recording, presented as PDF) & 
Z:Peter Yarensky (conversion back to abc with
Z:a couple modifications based on the recording).
Z: (Prints correctly; slide doesn't display correctly in BarFly)
Z:<http://tunes.nhcountrydance.com>.
K:Em
|:"Em" !slide![e2e2]>e2 efed | Beee efed | "G"  Bddd dedc  | BGBd  dedc |
  "Em" Be2e efed  | Bdef g2fg | "D" afge fde^c \
|1 "B7"dBAF "Em"E2 z2 :|2 "B7"dBAF "Em"E2B"+"c |]
|:"Em" BGE2 EFGA | BE({F}E)D EGFE | "D"D2[DA]D [DA]EFD    | A,DDD D2A"+"c |
  "Em" BGE2 EFGA | BGBe e3e      | "Em"efed "D"B^cdB \
|1 "B7"AGFD "Em"E2B^c :|2"B7"AGFD "Em"E2 z2 |]

